X:111
T:Calabria
R:Reel
B:The Athole Collection
M:C|
L:1/8
K:F
f|cffg a2 gf|a2 gf egga|cffg a2gf|ecde ~f2f:|
c|~f2 fd cAAc|BGAF EGGe|~f2 fd cAAc|BgcA F2 Fe|
~f2 fd cAAa|bgaf egga|fefd cAAc|dfeg ~f2f||

